app/dist/common/images/china-hgs-real-estate.svg

<svg fill="none" height="18" width="18" xmlns="http://www.w3.org/2000/svg" xmlns:xlink="http://www.w3.org/1999/xlink"><linearGradient id="a" gradientUnits="userSpaceOnUse" x1="12.003" x2="10.019" y1="13.075" y2="14.227"><stop offset="0" stop-color="#2e62a3"/><stop offset=".401" stop-color="#4a86c1"/><stop offset="1" stop-color="#01478f"/></linearGradient><linearGradient id="b"><stop offset="0" stop-color="#00468e"/><stop offset="1" stop-color="#57a3d8"/></linearGradient><linearGradient id="c" gradientUnits="userSpaceOnUse" x1="8.92" x2="9.347" xlink:href="#b" y1="7.269" y2="8.824"/><linearGradient id="d" gradientUnits="userSpaceOnUse" x1="8.92" x2="9.347" xlink:href="#b" y1="9.86" y2="11.415"/><linearGradient id="e" gradientUnits="userSpaceOnUse" x1="8.92" x2="9.373" xlink:href="#b" y1="12.245" y2="13.843"/><linearGradient id="f"><stop offset="0" stop-color="#00468e"/><stop offset=".567" stop-color="#3f76b4"/><stop offset="1" stop-color="#145196"/></linearGradient><linearGradient id="g" gradientUnits="userSpaceOnUse" x1="8.077" x2="8.216" xlink:href="#f" y1="5.576" y2="7.572"/><linearGradient id="h" gradientUnits="userSpaceOnUse" x1="8.077" x2="8.216" xlink:href="#f" y1="8.138" y2="10.133"/><linearGradient id="i" gradientUnits="userSpaceOnUse" x1="8.07" x2="8.204" xlink:href="#f" y1="10.714" y2="12.58"/><linearGradient id="j" gradientUnits="userSpaceOnUse" x1="8.69" x2="9.404" y1="4.619" y2="6.479"><stop offset="0" stop-color="#00468e"/><stop offset="1" stop-color="#5295cc"/></linearGradient><linearGradient id="k"><stop offset="0" stop-color="#00468e"/><stop offset=".511" stop-color="#2f64a5"/><stop offset="1" stop-color="#00468e"/></linearGradient><linearGradient id="l" gradientUnits="userSpaceOnUse" x1="10.904" x2="9.95" xlink:href="#k" y1="7.302" y2="8.946"/><linearGradient id="m" gradientUnits="userSpaceOnUse" x1="10.873" x2="9.874" xlink:href="#k" y1="12.36" y2="13.988"/><linearGradient id="n"><stop offset="0" stop-color="#01478f"/><stop offset="1" stop-color="#4179b6"/></linearGradient><linearGradient id="o" gradientUnits="userSpaceOnUse" x1="10.136" x2="11.082" xlink:href="#n" y1="7.967" y2="9.254"/><linearGradient id="p" gradientUnits="userSpaceOnUse" x1="10.265" x2="11.229" xlink:href="#n" y1="10.558" y2="11.779"/><linearGradient id="q" gradientUnits="userSpaceOnUse" x1="11.936" x2="11.023" xlink:href="#n" y1="5.503" y2="6.745"/><linearGradient id="r" gradientUnits="userSpaceOnUse" x1="10.935" x2="9.854" xlink:href="#k" y1="4.619" y2="6.369"/><linearGradient id="s" gradientUnits="userSpaceOnUse" x1="10.935" x2="9.988" xlink:href="#k" y1="9.911" y2="11.588"/><path d="m0 0h18v18h-18z" fill="#f0f3fa"/><path d="m12.003 13.705v-.883l-2.036 1.513z" fill="url(#a)"/><path d="m9.534 9.05v-2.252l-1.38.986z" fill="url(#c)"/><path d="m9.534 11.64v-2.25l-1.38.986 1.38 1.266z" fill="url(#d)"/><path d="m9.534 14.084v-2.324l-1.38 1.06 1.38 1.265z" fill="url(#e)"/><path d="m8 7.637v-2.282l1.38 1.325z" fill="url(#g)"/><path d="m8 10.198v-2.281l1.38 1.325z" fill="url(#h)"/><path d="m8 12.642v-2.135l1.257 1.178z" fill="url(#i)"/><path d="m9.534 4.104-1.534.957 1.534 1.472z" fill="url(#j)"/><path d="m10 9.109v-2.209l1.936.662-1.936 1.548z" fill="url(#l)"/><path d="m10 14.202v-2.252l1.87.707z" fill="url(#m)"/><path d="m12.003 9.919v-2.135l-1.936 1.546z" fill="url(#o)"/><path d="m12.003 12.51v-2.135l-1.803 1.443 1.803.691z" fill="url(#p)"/><path d="m12.003 7.387v-2.061l-1.87 1.428z" fill="url(#q)"/><path d="m10 4.178 2.003.883-2.003 1.545z" fill="url(#r)"/><path d="m10 11.73v-2.225l2.003.604z" fill="url(#s)"/><path d="m9.372 14.332-1.002-.929c-2.203-.607-3.776-2.574-3.776-4.893 0-2.805 2.319-5.068 5.228-5.068 1.284 0 2.46.442 3.374 1.177h.226a5.484 5.484 0 0 0 -3.888-1.619c-3.07 0-5.557 2.537-5.557 5.667 0 3.075 2.401 5.578 5.395 5.665z" fill="#00468e"/></svg>

<!-- by TradingView --><svg width="18" height="18" fill="none" xmlns="http://www.w3.org/2000/svg"><path fill="#F0F3FA" d="M0 0h18v18H0z"/><path d="M12.003 13.705v-.883l-2.036 1.513 2.036-.63z" fill="url(#paint0_linear_3186)"/><path d="M9.534 9.05V6.798l-1.38.986 1.38 1.266z" fill="url(#paint1_linear_3186)"/><path d="M9.534 11.64V9.39l-1.38.986 1.38 1.266z" fill="url(#paint2_linear_3186)"/><path d="M9.534 14.084V11.76l-1.38 1.06 1.38 1.265z" fill="url(#paint3_linear_3186)"/><path d="M8 7.637V5.355L9.38 6.68 8 7.637z" fill="url(#paint4_linear_3186)"/><path d="M8 10.198V7.917l1.38 1.325-1.38.956z" fill="url(#paint5_linear_3186)"/><path d="M8 12.642v-2.135l1.257 1.178L8 12.642z" fill="url(#paint6_linear_3186)"/><path d="M9.534 4.104L8 5.061l1.534 1.472V4.104z" fill="url(#paint7_linear_3186)"/><path d="M10 9.109V6.9l1.936.662L10 9.11z" fill="url(#paint8_linear_3186)"/><path d="M10 14.202V11.95l1.87.707L10 14.202z" fill="url(#paint9_linear_3186)"/><path d="M12.003 9.919V7.784L10.067 9.33l1.936.589z" fill="url(#paint10_linear_3186)"/><path d="M12.003 12.51v-2.135L10.2 11.818l1.803.691z" fill="url(#paint11_linear_3186)"/><path d="M12.003 7.387V5.326l-1.87 1.428 1.87.633z" fill="url(#paint12_linear_3186)"/><path d="M10 4.178l2.003.883L10 6.606V4.178z" fill="url(#paint13_linear_3186)"/><path d="M10 11.73V9.505l2.003.604L10 11.73z" fill="url(#paint14_linear_3186)"/><path d="M9.372 14.332l-1.002-.929c-2.203-.607-3.776-2.574-3.776-4.893 0-2.805 2.319-5.068 5.228-5.068 1.284 0 2.46.442 3.374 1.177h.226A5.484 5.484 0 009.534 3c-3.07 0-5.557 2.537-5.557 5.667 0 3.075 2.401 5.578 5.395 5.665z" fill="#00468E"/><defs><linearGradient id="paint0_linear_3186" x1="12.003" y1="13.075" x2="10.019" y2="14.227" gradientUnits="userSpaceOnUse"><stop stop-color="#2E62A3"/><stop offset=".401" stop-color="#4A86C1"/><stop offset="1" stop-color="#01478F"/></linearGradient><linearGradient id="paint1_linear_3186" x1="8.92" y1="7.269" x2="9.347" y2="8.824" gradientUnits="userSpaceOnUse"><stop stop-color="#00468E"/><stop offset="1" stop-color="#57A3D8"/></linearGradient><linearGradient id="paint2_linear_3186" x1="8.92" y1="9.86" x2="9.347" y2="11.415" gradientUnits="userSpaceOnUse"><stop stop-color="#00468E"/><stop offset="1" stop-color="#57A3D8"/></linearGradient><linearGradient id="paint3_linear_3186" x1="8.92" y1="12.245" x2="9.373" y2="13.843" gradientUnits="userSpaceOnUse"><stop stop-color="#00468E"/><stop offset="1" stop-color="#57A3D8"/></linearGradient><linearGradient id="paint4_linear_3186" x1="8.077" y1="5.576" x2="8.216" y2="7.572" gradientUnits="userSpaceOnUse"><stop stop-color="#00468E"/><stop offset=".567" stop-color="#3F76B4"/><stop offset="1" stop-color="#145196"/></linearGradient><linearGradient id="paint5_linear_3186" x1="8.077" y1="8.138" x2="8.216" y2="10.133" gradientUnits="userSpaceOnUse"><stop stop-color="#00468E"/><stop offset=".567" stop-color="#3F76B4"/><stop offset="1" stop-color="#145196"/></linearGradient><linearGradient id="paint6_linear_3186" x1="8.07" y1="10.714" x2="8.204" y2="12.58" gradientUnits="userSpaceOnUse"><stop stop-color="#00468E"/><stop offset=".567" stop-color="#3F76B4"/><stop offset="1" stop-color="#145196"/></linearGradient><linearGradient id="paint7_linear_3186" x1="8.69" y1="4.619" x2="9.404" y2="6.479" gradientUnits="userSpaceOnUse"><stop stop-color="#00468E"/><stop offset="1" stop-color="#5295CC"/></linearGradient><linearGradient id="paint8_linear_3186" x1="10.904" y1="7.302" x2="9.95" y2="8.946" gradientUnits="userSpaceOnUse"><stop stop-color="#00468E"/><stop offset=".511" stop-color="#2F64A5"/><stop offset="1" stop-color="#00468E"/></linearGradient><linearGradient id="paint9_linear_3186" x1="10.873" y1="12.36" x2="9.874" y2="13.988" gradientUnits="userSpaceOnUse"><stop stop-color="#00468E"/><stop offset=".511" stop-color="#2F64A5"/><stop offset="1" stop-color="#00468E"/></linearGradient><linearGradient id="paint10_linear_3186" x1="10.136" y1="7.967" x2="11.082" y2="9.254" gradientUnits="userSpaceOnUse"><stop stop-color="#01478F"/><stop offset="1" stop-color="#4179B6"/></linearGradient><linearGradient id="paint11_linear_3186" x1="10.265" y1="10.558" x2="11.229" y2="11.779" gradientUnits="userSpaceOnUse"><stop stop-color="#01478F"/><stop offset="1" stop-color="#4179B6"/></linearGradient><linearGradient id="paint12_linear_3186" x1="11.936" y1="5.503" x2="11.023" y2="6.745" gradientUnits="userSpaceOnUse"><stop stop-color="#01478F"/><stop offset="1" stop-color="#4179B6"/></linearGradient><linearGradient id="paint13_linear_3186" x1="10.935" y1="4.619" x2="9.854" y2="6.369" gradientUnits="userSpaceOnUse"><stop stop-color="#00468E"/><stop offset=".511" stop-color="#2F64A5"/><stop offset="1" stop-color="#00468E"/></linearGradient><linearGradient id="paint14_linear_3186" x1="10.935" y1="9.911" x2="9.988" y2="11.588" gradientUnits="userSpaceOnUse"><stop stop-color="#00468E"/><stop offset=".511" stop-color="#2F64A5"/><stop offset="1" stop-color="#00468E"/></linearGradient></defs></svg>
